X:61
T:C'est la mre Mathurine
C:trad.
A:Picardie
O:France
M:2/4
L:1/8
Q:1/4=120
K:D
FG|AAdB|AAFG|AAdB|A2AA|AABA|GGGG|
GGAG|F2A2|AAFA|d2F2|FFEE|D2||
W:
W:C'est la mre Mathurine
W:Qui s'est enivre c'matin
W:Elle a bu une chopine
W:De cinq  six sous de vin
W:Tin, tin, derlin din din !
W:Tin, tin, derlin din din !
W:
W:Elle a bu une chopine
W:De cinq  six sous de vin
W:Elle en est tombe malade
W:Il lui faut un mdecin
W:
W:Le mdecin lui ordonne
W:De ne plus boire de vin
W:
W:J'en ai bu toute ma vie
W:J'en boirai jusqu' la fin
W:
W:Si je meurs, que l'on m'enterre
W:Dans la cave o est le vin
W:
W:Les pieds contre la muraille
W:Et la tte sous l'robin
W:
W:Sur ma tombe on crira
W:En caractres biens fins
W:
W:C'est la mre Mathurine
W:Qui a toujours bu du vin
